X:1715
T:O'Connor's Favorite
M:C|
L:1/8
B:O'Neill's 1715
R:Hornpipe
Z:"Transcribed by Bob Safranek, rjs@gsp.org"
K:D
   ((3ABc) | dAFA dfaf | gfef d2 A2 | BdAd GdFd | FEED  E2 ((3ABc) |
             dAFA dfaf | gfef fcBA  | BcdB BGEC | D2 D2 D2        :|
|:   (FG)  | AFdA gdAF | GABG E3 f  | gfed cdef | edcB  A3   A     |
   ((3ded) Ad ((3fgf) df | ((3aba) fd A2 f2 | gfed cABc | d2 d2 d2 :|


